!!!OTL: UND WAS THUAT DENN DER JAEGERBUA
!!!ARE: Europa, Mitteleuropa, Oesterreich, Kaernten
!!!SCT: F0676
!!!YEM: Copyright 1995, estate of Helmut Schaffrath.
**kern
*ICvox
*Ivox
*M3/4
*k[f#c#g#]
*A:
{8e
8c#
=1
8d
8f#
4.dd
16cc#
16b
=2
8.cc#
16a
4e
4r}
=3
{8d
8e
4g#
8cc#
8b
=4
8b
4.a}
{8e
8c#
=5
8d
8f#
4ff#
8ee
8dd
=6
8.gg#
16dd
4.cc#}
{8e
=7
8e
8g#
4.g#
16dd
16g#
=8
2a}
{8e
8c#
=9
8d
8f#
4.dd
16cc#
16b
=10
8.cc#
16a
4e
4r}
=11
{8d
8e
4g#
8cc#
8b
=12
8b
4.a}
{8e
8c#
=13
8d
8f#
4ff#
8ee
8dd
=14
8.gg#
16dd
4.cc#}
{8e
=15
8e
8g#
4.g#
16dd
16g#
=16
2a}
{12e
12f#
12g#
=17
8a
2aa
16gg#
16ff#
=18
4.ee
16cc#
16e
8.a}
{16a
=19
16g#
4ee
16dd
16e
4g#}
{16g#
=20
16a
[8.ee
8ee]
16cc#
16e
16a}
{16e
16f#
16g#
=21
8a
2aa
16gg#
16ff#
=22
4.ee
8cc#
16e
8a}
{16a
=23
16g#
[8.gg#
8gg#]
16gg#
16ff#
8.ee
16g#
=24
2a}
==
!!!AGN: Staende -, Jaeger - Lied; Jodler
!!!ONB: ESAC (Essen Associative Code) Database: FINK
!!!AMT: simple triple
!!!AIN: vox
!!!EED: Helmut Schaffrath
!!!EEV: 1.0
*-
